X:1
T: The Highland Chieftain
C:Nathaniel Gow
R:Strathspey
Q: 128
K:D
M:4/4
L:1/16
|:g2|f3e d3B A2F2 F2d2|AF3 A3E F4 F2g2|f3e d3B A3B d3B|AF3 F3D E4 E2g2|
f3d e3f d3f B3d|A3d A2F2 A4 A2Bc|d3f d2cB A2F2 F2d2|AF3 F3D E4 E2B2|
AF3 F3B AF3 F3d|A2F2 A3E F4 F2B2|AF3 A3B d3e f3e|d3B A2F2 E4 E2B2|
AF3 F3B AF3 F3d|A2F2 A3E F4 F3B|A3B d3f ef3 d3B|A3B d2F2 E4 E2:|
